X:1
T:Covered by the Blood
T:Covered by the Blood
T:Ran C. Story
T:Nellie Edwards, 1904
T:Public Domain Courtesy of the Cyber Hymnal™
T:Public Domain Courtesy of the Cyber Hymnal™
C:Ran C. Story
Z:Public Domain
Z:Courtesy of the Cyber Hymnal™
%%score ( 1 2 ) ( 3 4 )
L:1/8
Q:1/4=115
M:4/4
K:Ab
V:1 treble 
V:2 treble 
V:3 bass 
V:4 bass 
V:1
 [A,C][B,D] | [CE]2 [CE][CE] [CE]2 [CE][CE] | [DF]2 [FA][FA] [FA]2 ([DF][DF]) | %3
w: 1.~Once in|sin’s dark- est night I was|wan- dering a- lone; A *|
w: 2.~From the|bur- den I car- ried now|I am set free, For *|
w: 3.~I can|ne’er un- der- stand why He|sought ev- en me, Why~His *|
w: 4.~Now He|comes to my heart and re-|moves ev- ery care; He *|
 [CE]2 [CE][CE] [EA]2 [EA][EA] | [EB]6 [CA][DB] | [Ec]2 [Ec][Ec] [Ec]2 [EA][EA] | %6
w: strang- er to mer- cy I|stood. But the|Sav- ior came nigh When he|
w: Je- sus has lift- ed my|load. O the|love and the grace I re-|
w: life- blood on Cal- va- ry|flowed. But suf-|fi- cient for me, Since He|
w: bears all my cum- ber- ing|load. In a|path- way re- plete With His|
 [FB]2 [FA][DF] [CE]2 [CE][CE] | [DF][DF] [CA]2 [DG][DG] [DB]2 | [CA]6 ||"^Refrain" [A,C][B,D] | %10
w: heard my faint cry, And He|put my sins un- der the|blood.||
w: ceived in its place When he|put my sins un- der the|blood.|They are|
w: died on the tree, He hath|put my sins un- der the|blood.||
w: love are my feet, Since He|put my sins un- der the|blood.||
 [CE][CE][CE][CE] [CE]2 [CE][CE] | [DF][FA][FA][FA] [FA]2 [DF]2 | [CE][CE] [CE]2 [EA][EA][DG][CA] | %13
w: |||
w: cov- ered by the blood; They are|cov- ered by the blood; My|sins are all cov- ered by the|
w: |||
w: |||
 B6 [EA][EB] | [Ec][Ec][Ec][Ec] [Ec]2 [EA][EA] | [DB][FA][FA][DF] [FA]2 [DF]2 | %16
w: |||
w: blood. Mine in-|i- qui- ties so vast Have been|blot- ted out at last, My|
w: |||
w: |||
 [CE][CE] [CA]2 [DG][DG][DB][DB] | A6 |] %18
w: ||
w: sins are all cov- ered by the|blood.|
w: ||
w: ||
V:2
 x2 | x8 | x8 | x8 | x8 | x8 | x8 | x8 | x6 || x2 | x8 | x8 | x8 | (E2 =DD E2) x2 | x8 | x8 | x8 | %17
 (C2 DD C2) |] %18
V:3
 [A,,E,][A,,E,] | [A,,A,]2 [A,,A,][A,,A,] [A,,A,]2 [A,,A,][A,,A,] | %2
w: ||
 [D,A,]2 [D,A,][D,A,] [D,A,]2 [D,A,][D,A,] | [A,,A,]2 [A,,A,][A,,A,] [C,A,]2 [C,A,][C,A,] | %4
w: ||
 [E,G,]6 [A,,A,][A,,A,] | [A,,A,]2 [A,,A,][A,,A,] [A,,A,]2 [C,A,][C,A,] | %6
w: ||
 [D,A,]2 [D,A,][D,A,] [A,,A,]2 [A,,A,][A,,A,] | [D,A,][D,A,] [F,A,]2 [E,B,][E,B,] [E,G,]2 | %8
w: ||
 [A,,A,]6 || [A,,E,][A,,E,] | [A,,A,][A,,A,][A,,A,][A,,A,] [A,,A,]2 [A,,A,][A,,A,] | %11
w: |||
 [D,A,][D,D][D,D][D,D] [D,D]2 [D,A,]2 | [A,,A,][A,,A,] [A,,A,]2 [C,A,][C,A,][B,,E,][A,,E,] | %13
w: ||
 [E,G,]2 [F,A,][F,A,] G,2 [C,A,][B,,G,] | [A,,A,][A,,A,][A,,A,][A,,A,] [A,,A,]2 [C,A,][C,A,] | %15
w: blood, pre- cious blood * *||
 [D,F,][D,A,][D,A,][D,A,] [D,A,]2 [D,A,]2 | [E,A,][E,A,] [E,A,]2 [E,B,][E,B,][E,G,][E,G,] | %17
w: ||
 (A,2 F,F, E,2) |] %18
w: |
V:4
 x2 | x8 | x8 | x8 | x8 | x8 | x8 | x8 | x6 || x2 | x8 | x8 | x8 | x4 (E,D,) x2 | x8 | x8 | x8 | %17
 A,,6 |] %18

